projects/js-packages/social-logos/src/svg/blogger-alt.svg

<svg enable-background="new 0 0 24 24" viewBox="0 0 24 24" xmlns="http://www.w3.org/2000/svg"><path d="m19.779 9.904h-.981l-.021.001c-.614 0-1.117-.476-1.16-1.079l-.001-.013c0-3.21-2.602-5.813-5.813-5.813h-2.932c-3.21 0-5.813 2.602-5.813 5.813v6.375c0 3.21 2.602 5.813 5.813 5.813h6.257c3.21 0 5.813-2.603 5.813-5.813l.002-4.121c-.001-.643-.522-1.163-1.164-1.163zm-11.053-2.191h3.291c.617 0 1.117.5 1.117 1.117s-.5 1.117-1.117 1.117h-3.291c-.617 0-1.117-.5-1.117-1.117-0-.616.5-1.117 1.117-1.117zm6.601 8.657h-6.607c-.584 0-1.057-.473-1.057-1.057s.473-1.057 1.057-1.057h6.607c.584 0 1.057.473 1.057 1.057s-.473 1.057-1.057 1.057z"/></svg>

<?xml version="1.0" encoding="iso-8859-1"?>
<!-- Generator: Adobe Illustrator 19.2.1, SVG Export Plug-In . SVG Version: 6.00 Build 0)  -->
<svg version="1.1" xmlns="http://www.w3.org/2000/svg" xmlns:xlink="http://www.w3.org/1999/xlink" x="0px" y="0px"
	 viewBox="0 0 24 24" style="enable-background:new 0 0 24 24;" xml:space="preserve">
<g id="blogger-alt">
	<path d="M19.779,9.904h-0.981l-0.021,0.001c-0.614,0-1.117-0.476-1.16-1.079l-0.001-0.013c0-3.21-2.602-5.813-5.813-5.813H8.871
		c-3.21,0-5.813,2.602-5.813,5.813v6.375c0,3.21,2.602,5.813,5.813,5.813h6.257c3.21,0,5.813-2.603,5.813-5.813l0.002-4.121
		C20.942,10.424,20.421,9.904,19.779,9.904z M8.726,7.713h3.291c0.617,0,1.117,0.5,1.117,1.117c0,0.617-0.5,1.117-1.117,1.117H8.726
		c-0.617,0-1.117-0.5-1.117-1.117C7.609,8.214,8.109,7.713,8.726,7.713z M15.327,16.37H8.72c-0.584,0-1.057-0.473-1.057-1.057
		c0-0.584,0.473-1.057,1.057-1.057h6.607c0.584,0,1.057,0.473,1.057,1.057C16.384,15.897,15.911,16.37,15.327,16.37z"/>
</g>
<g id="Layer_1">
</g>
</svg>
